X: 10530
T: Doonagore, The
R: reel
M: 4/4
K: Gmajor
DGG2 FAA2|BGG2 ABcA|d2cA BGG2|(3Bcd cA GAGF|
DGG2 FAA2|BGG2 ABcA|d2cA BGG2|1 (3Bcd cA G3F:|2 (3Bcd cA g4||
~g2ge fdde|edgd fdd2|gage fddB|defd g2 (3def|
gagf d2dc|BGG2 ABcA|d2cA BGG2|1 (3Bcd cA g4:|2 (3Bcd cA G3F||

